cssgg/instagram.svg

<svg
  width="24"
  height="24"
  viewBox="0 0 24 24"
  fill="none"
  xmlns="http://www.w3.org/2000/svg"
>
  <path
    fill-rule="evenodd"
    clip-rule="evenodd"
    d="M12 7C9.23858 7 7 9.23858 7 12C7 14.7614 9.23858 17 12 17C14.7614 17 17 14.7614 17 12C17 9.23858 14.7614 7 12 7ZM9 12C9 13.6569 10.3431 15 12 15C13.6569 15 15 13.6569 15 12C15 10.3431 13.6569 9 12 9C10.3431 9 9 10.3431 9 12Z"
    fill="currentColor"
  />
  <path
    d="M18 5C17.4477 5 17 5.44772 17 6C17 6.55228 17.4477 7 18 7C18.5523 7 19 6.55228 19 6C19 5.44772 18.5523 5 18 5Z"
    fill="currentColor"
  />
  <path
    fill-rule="evenodd"
    clip-rule="evenodd"
    d="M5 1C2.79086 1 1 2.79086 1 5V19C1 21.2091 2.79086 23 5 23H19C21.2091 23 23 21.2091 23 19V5C23 2.79086 21.2091 1 19 1H5ZM19 3H5C3.89543 3 3 3.89543 3 5V19C3 20.1046 3.89543 21 5 21H19C20.1046 21 21 20.1046 21 19V5C21 3.89543 20.1046 3 19 3Z"
    fill="currentColor"
  />
</svg>

<svg viewBox="0 0 24 24" xmlns="http://www.w3.org/2000/svg"><path fill-rule="evenodd" d="M12 7c-2.77 0-5 2.23-5 5 0 2.76 2.23 5 5 5 2.76 0 5-2.24 5-5 0-2.77-2.24-5-5-5Zm-3 5c0 1.65 1.34 3 3 3 1.65 0 3-1.35 3-3 0-1.66-1.35-3-3-3 -1.66 0-3 1.34-3 3Z"/><g><path d="M18 5c-.56 0-1 .44-1 1 0 .55.44 1 1 1 .55 0 1-.45 1-1 0-.56-.45-1-1-1Z"/><path fill-rule="evenodd" d="M5 1C2.79 1 1 2.79 1 5v14c0 2.2 1.79 4 4 4h14c2.2 0 4-1.8 4-4V5c0-2.21-1.8-4-4-4H5Zm14 2H5c-1.11 0-2 .89-2 2v14c0 1.1.89 2 2 2h14c1.1 0 2-.9 2-2V5c0-1.11-.9-2-2-2Z"/></g></svg>
